app/content/themes/irontheme/images/general/quote.svg

<svg width="41" height="27" viewBox="0 0 41 27" fill="none" xmlns="http://www.w3.org/2000/svg">
<path d="M14.0535 0.279992C5.4135 5.60799 0.373501 12.808 0.373501 19C0.373501 23.176 3.2535 26.344 6.8535 26.344C10.4535 26.344 13.1895 23.752 13.1895 20.296C13.1895 17.272 10.7415 14.968 8.0055 14.968C6.4215 14.968 4.9815 15.544 3.9735 16.552C5.4135 11.512 9.3015 7.048 15.7815 2.87199L14.0535 0.279992ZM32.7735 14.968C31.1895 14.968 29.7495 15.544 28.7415 16.552C30.1815 11.512 34.0695 7.048 40.5495 2.87199L38.8215 0.279992C30.1815 5.60799 25.1415 12.808 25.1415 19C25.1415 23.176 28.0215 26.344 31.6215 26.344C35.2215 26.344 37.9575 23.752 37.9575 20.296C37.9575 17.272 35.5095 14.968 32.7735 14.968Z" fill="#236BB8"/>
</svg>

<svg width="41" height="27" viewBox="0 0 41 27" fill="none" xmlns="http://www.w3.org/2000/svg"><path d="M14.053.28C5.413 5.608.373 12.808.373 19c0 4.176 2.88 7.344 6.48 7.344 3.6 0 6.337-2.592 6.337-6.048 0-3.024-2.448-5.328-5.184-5.328-1.585 0-3.025.576-4.033 1.584 1.44-5.04 5.329-9.504 11.808-13.68L14.053.28zm18.72 14.688c-1.584 0-3.024.576-4.032 1.584 1.44-5.04 5.328-9.504 11.809-13.68L38.822.28c-8.64 5.328-13.68 12.528-13.68 18.72 0 4.176 2.88 7.344 6.48 7.344 3.6 0 6.336-2.592 6.336-6.048 0-3.024-2.448-5.328-5.184-5.328z" fill="#236BB8"/></svg>
